X: 36897
T: Shoemaker's Fancy, The
R: jig
M: 6/8
K: Gmajor
|:B|GEE G2e|dBB dBA|GEF G2e|dBA A2B|
GEE GBe|dBB def|gba gfe|dBA A2:|
|:B|dBd gfe|dBB B2e|dBd gfe|dBA A2B|
dBd gfe|dBB def|gba gfe|dBA A2:|

